SX160_IS/IMG_0063.ti3
CTI3   

DESCRIPTOR "Argyll Calibration Target chart information 3"
ORIGINATOR "Argyll target"
CREATED "Mon Oct  3 02:56:15 2016"
DEVICE_CLASS "INPUT"
COLOR_REP "XYZ_RGB"

NUMBER_OF_FIELDS 10
BEGIN_DATA_FORMAT
SAMPLE_ID XYZ_X XYZ_Y XYZ_Z RGB_R RGB_G RGB_B STDEV_R STDEV_G STDEV_B 
END_DATA_FORMAT

NUMBER_OF_SETS 24
BEGIN_DATA
A01 11.52185 10.08245 5.088943 15.94777 10.02237 8.059561 0.111655 0.0582000 0.0730333 
A02 39.17590 34.95036 19.22045 52.60330 34.64063 29.51813 0.458323 0.240018 0.285091 
A03 16.80645 18.36011 25.71085 15.91087 22.41875 29.57516 0.164253 0.170435 0.231615 
A04 10.90691 13.25165 5.290393 12.36952 13.23336 9.032490 0.148656 0.124930 0.135252 
A05 24.18974 23.03658 33.42948 28.44811 27.97245 37.97235 0.257506 0.208270 0.363723 
A06 30.42290 41.78148 34.60426 27.39331 49.82017 48.12712 0.386850 0.364403 0.412389 
B01 40.71693 31.18084 4.991907 55.64558 23.75911 11.83507 0.537139 0.185883 0.200184 
B02 12.32583 11.26303 29.86628 11.29020 16.50179 30.71733 0.128360 0.0866512 0.214222 
B03 29.66703 19.37233 10.14950 46.29762 16.96034 15.16476 0.226742 0.109428 0.148783 
B04 8.517104 6.371078 10.77254 10.97662 7.605371 11.68491 0.100883 0.0639922 0.0905794 
B05 35.35805 44.45263 8.946596 36.95978 41.29460 22.33444 0.469273 0.347000 0.397021 
B06 48.78145 43.56978 6.059474 62.51436 35.09834 16.49402 0.539069 0.311428 0.323345 
C01 6.861362 5.752787 21.37545 5.342435 9.368339 20.58862 0.0932823 0.0748621 0.238576 
C02 14.98372 23.18267 7.897043 13.60562 24.82403 15.62274 0.168913 0.161880 0.213034 
C03 21.63062 12.56477 3.845859 35.84425 10.25672 7.854556 0.208472 0.0773143 0.141234 
C04 59.33541 59.80118 7.191032 71.57449 50.62809 22.83564 0.532810 0.400685 0.479691 
C05 31.08230 20.09105 23.55863 46.12303 19.88683 27.03834 0.511918 0.104995 0.363637 
C06 13.61002 19.30314 30.93476 10.83372 27.49670 36.40435 0.190503 0.215861 0.329216 
D01 87.81319 91.31598 73.94960 92.08633 91.39284 88.98229 0.844573 0.835774 1.302427 
D02 56.57267 58.94254 48.91837 60.11312 60.65015 60.41083 0.404326 0.318497 0.522568 
D03 34.81326 36.32829 30.28349 37.24819 37.89740 38.08687 0.465998 0.307844 0.422517 
D04 18.44209 19.15667 15.91372 19.56832 19.50331 19.45771 0.190473 0.105830 0.183777 
D05 8.468332 8.832614 7.592110 9.723710 9.907143 10.04074 0.201228 0.171701 0.165572 
D06 2.989379 3.105103 2.681828 3.796800 3.796913 3.861093 0.0883599 0.0563541 0.0587978 
END_DATA
